assets/icons/qvision/hot_tub.svg

<svg xmlns="http://www.w3.org/2000/svg" height="24" viewBox="0 0 24 24" width="24"><path d="M0 0h24v24H0z" fill="none"/><circle cx="7" cy="6" r="2"/><path d="M11.15 12c-.31-.22-.59-.46-.82-.72l-1.4-1.55c-.19-.21-.43-.38-.69-.5-.29-.14-.62-.23-.96-.23h-.03C6.01 9 5 10.01 5 11.25V12H2v8c0 1.1.9 2 2 2h16c1.1 0 2-.9 2-2v-8H11.15zM7 20H5v-6h2v6zm4 0H9v-6h2v6zm4 0h-2v-6h2v6zm4 0h-2v-6h2v6zm-.35-14.14l-.07-.07c-.57-.62-.82-1.41-.67-2.2L18 3h-1.89l-.06.43c-.2 1.36.27 2.71 1.3 3.72l.07.06c.57.62.82 1.41.67 2.2l-.11.59h1.91l.06-.43c.21-1.36-.27-2.71-1.3-3.71zm-4 0l-.07-.07c-.57-.62-.82-1.41-.67-2.2L14 3h-1.89l-.06.43c-.2 1.36.27 2.71 1.3 3.72l.07.06c.57.62.82 1.41.67 2.2l-.11.59h1.91l.06-.43c.21-1.36-.27-2.71-1.3-3.71z"/></svg>

<svg width="24" height="24" viewBox="0 0 24 24" fill="none" xmlns="http://www.w3.org/2000/svg">
<g clip-path="url(#clip0_147_6210)">
<path d="M7 8C8.10457 8 9 7.10457 9 6C9 4.89543 8.10457 4 7 4C5.89543 4 5 4.89543 5 6C5 7.10457 5.89543 8 7 8Z" fill="#323232"/>
<path d="M11.15 12C10.84 11.78 10.56 11.54 10.33 11.28L8.93 9.73C8.74 9.52 8.5 9.35 8.24 9.23C7.95 9.09 7.62 9 7.28 9H7.25C6.01 9 5 10.01 5 11.25V12H2V20C2 21.1 2.9 22 4 22H20C21.1 22 22 21.1 22 20V12H11.15ZM7 20H5V14H7V20ZM11 20H9V14H11V20ZM15 20H13V14H15V20ZM19 20H17V14H19V20ZM18.65 5.86L18.58 5.79C18.01 5.17 17.76 4.38 17.91 3.59L18 3H16.11L16.05 3.43C15.85 4.79 16.32 6.14 17.35 7.15L17.42 7.21C17.99 7.83 18.24 8.62 18.09 9.41L17.98 10H19.89L19.95 9.57C20.16 8.21 19.68 6.86 18.65 5.86ZM14.65 5.86L14.58 5.79C14.01 5.17 13.76 4.38 13.91 3.59L14 3H12.11L12.05 3.43C11.85 4.79 12.32 6.14 13.35 7.15L13.42 7.21C13.99 7.83 14.24 8.62 14.09 9.41L13.98 10H15.89L15.95 9.57C16.16 8.21 15.68 6.86 14.65 5.86Z" fill="#323232"/>
</g>
<defs>
<clipPath id="clip0_147_6210">
<rect width="24" height="24" fill="white"/>
</clipPath>
</defs>
</svg>
